src/assets/svg/icons/fa/nuevos/classic/thin/user-hair classic thin.svg

<svg xmlns="http://www.w3.org/2000/svg" viewBox="0 0 448 512"><path d="M96 128C96 57.31 153.3 0 224 0C294.7 0 352 57.31 352 128V144C352 214.7 294.7 272 224 272C153.3 272 96 214.7 96 144V128zM334.9 112H312C289.9 112 269 101.8 255.4 84.49L250.1 89.86C231.2 113.1 201.7 128 170.5 128H112V144C112 205.9 162.1 256 224 256C285.9 256 336 205.9 336 144V128C336 122.6 335.6 117.2 334.9 112L334.9 112zM331.4 96C324.6 73.21 310.7 53.46 292.4 39.29L265.8 71.75L267.2 73.6C277.8 87.7 294.4 96 311.1 96H331.4zM238.6 79.72L278.1 30.4C262.7 21.23 243.1 15.1 224 15.1C167.6 15.1 120.9 57.72 113.1 111.1H170.5C196.9 111.1 221.9 100.2 238.6 79.72V79.72zM0 483.6C0 393.2 73.23 320 163.6 320H284.4C374.8 320 448 393.2 448 483.6C448 499.3 435.3 512 419.6 512H28.44C12.74 512 0 499.3 0 483.6zM28.44 496H419.6C426.4 496 432 490.4 432 483.6C432 402.1 365.9 336 284.4 336H163.6C82.06 336 16 402.1 16 483.6C16 490.4 21.57 496 28.44 496z"/></svg>

<svg xmlns="http://www.w3.org/2000/svg" viewBox="0 0 448 512"><!--! Font Awesome Pro 6.4.0 by @fontawesome - https://fontawesome.com License - https://fontawesome.com/license (Commercial License) Copyright 2023 Fonticons, Inc. --><path d="M336 128c0-5.4-.4-10.8-1.1-16H312c-22.1 0-43-10.2-56.6-27.5L251 89.9C231.2 114 201.7 128 170.5 128L112 128v16c0 61.9 50.1 112 112 112s112-50.1 112-112V128zm-4.6-32c-6.8-22.8-20.6-42.5-39-56.7L265.8 71.8l1.4 1.8C277.8 87.7 294.4 96 312 96h19.4zM170.5 112c26.4 0 51.4-11.8 68.1-32.3L279 30.4C262.7 21.2 244 16 224 16c-56.4 0-103.1 41.7-110.9 96h57.4zM96 128C96 57.3 153.3 0 224 0s128 57.3 128 128v16c0 70.7-57.3 128-128 128s-128-57.3-128-128V128zM16 483.6c0 6.9 5.6 12.4 12.4 12.4H419.6c6.9 0 12.4-5.6 12.4-12.4C432 402.1 365.9 336 284.4 336H163.6C82.1 336 16 402.1 16 483.6zm-16 0C0 393.2 73.2 320 163.6 320H284.4C374.8 320 448 393.2 448 483.6c0 15.7-12.7 28.4-28.4 28.4H28.4C12.7 512 0 499.3 0 483.6z"/></svg>
